src/render/svg/extend.svg

<?xml version="1.0" standalone="no"?><!DOCTYPE svg PUBLIC "-//W3C//DTD SVG 1.1//EN" "http://www.w3.org/Graphics/SVG/1.1/DTD/svg11.dtd"><svg t="1674957291977" class="icon" viewBox="0 0 1024 1024" version="1.1" xmlns="http://www.w3.org/2000/svg"  width="512" height="512" xmlns:xlink="http://www.w3.org/1999/xlink"><path d="M377.250909 373.992727H178.734545a104.96 104.96 0 0 1-104.727272-104.727272V165.469091a104.96 104.96 0 0 1 104.727272-104.727273h198.516364a104.96 104.96 0 0 1 104.727273 104.727273v103.796364a104.96 104.96 0 0 1-104.727273 104.727272zM178.734545 130.56a34.909091 34.909091 0 0 0-34.90909 34.909091v103.796364a34.909091 34.909091 0 0 0 34.90909 34.90909h198.516364a34.909091 34.909091 0 0 0 34.909091-34.90909V165.469091a34.909091 34.909091 0 0 0-34.909091-34.909091zM380.043636 963.258182H181.527273a104.96 104.96 0 0 1-104.727273-104.727273v-316.509091a104.96 104.96 0 0 1 104.727273-104.727273h198.516363a104.96 104.96 0 0 1 104.727273 104.727273v316.509091a104.96 104.96 0 0 1-104.727273 104.727273zM181.527273 507.112727a34.909091 34.909091 0 0 0-34.909091 34.909091v316.509091a34.909091 34.909091 0 0 0 34.909091 34.909091h198.516363a34.909091 34.909091 0 0 0 34.909091-34.909091v-316.509091a34.909091 34.909091 0 0 0-34.909091-34.909091zM842.472727 963.258182h-198.516363a104.96 104.96 0 0 1-104.727273-104.727273v-103.796364a104.96 104.96 0 0 1 104.727273-104.727272h198.516363a104.96 104.96 0 0 1 104.727273 104.727272v103.796364a104.96 104.96 0 0 1-104.727273 104.727273z m-198.516363-243.432727a34.909091 34.909091 0 0 0-34.909091 34.90909v103.796364a34.909091 34.909091 0 0 0 34.909091 34.909091h198.516363a34.909091 34.909091 0 0 0 34.909091-34.909091v-103.796364a34.909091 34.909091 0 0 0-34.909091-34.90909zM845.265455 586.705455h-198.516364a104.96 104.96 0 0 1-104.727273-104.727273V165.469091a104.96 104.96 0 0 1 104.727273-104.727273h198.516364a104.96 104.96 0 0 1 104.727272 104.727273v316.509091a104.96 104.96 0 0 1-104.727272 104.727273z m-198.516364-456.145455a34.909091 34.909091 0 0 0-34.909091 34.909091v316.509091a34.909091 34.909091 0 0 0 34.909091 34.909091h198.516364a34.909091 34.909091 0 0 0 34.90909-34.909091V165.469091a34.909091 34.909091 0 0 0-34.90909-34.909091z"  ></path></svg>

<svg xmlns="http://www.w3.org/2000/svg" width="512" height="512" class="icon" viewBox="0 0 1024 1024">
    <path d="M377.2509 373.99273H178.73456A104.96 104.96 0 0 1 74.00727 269.26546V165.46908A104.96 104.96 0 0 1 178.73455 60.74182H377.2509a104.96 104.96 0 0 1 104.72727 104.72727v103.79637a104.96 104.96 0 0 1-104.72727 104.72727M178.73456 130.56a34.9091 34.9091 0 0 0-34.9091 34.9091v103.79636a34.9091 34.9091 0 0 0 34.9091 34.90908H377.2509A34.9091 34.9091 0 0 0 412.16 269.26545V165.4691A34.9091 34.9091 0 0 0 377.2509 130.56zm201.30909 832.69818H181.52727A104.96 104.96 0 0 1 76.8 858.53091V542.0218a104.96 104.96 0 0 1 104.72727-104.72726h198.51637A104.96 104.96 0 0 1 484.7709 542.02182V858.5309a104.96 104.96 0 0 1-104.72727 104.72727M181.52727 507.11273a34.9091 34.9091 0 0 0-34.90909 34.90909V858.5309a34.9091 34.9091 0 0 0 34.9091 34.90909h198.51636a34.9091 34.9091 0 0 0 34.90909-34.9091V542.02183a34.9091 34.9091 0 0 0-34.9091-34.9091zm660.94546 456.14545H643.95636A104.96 104.96 0 0 1 539.2291 858.53091V754.73455a104.96 104.96 0 0 1 104.72727-104.72728h198.51637A104.96 104.96 0 0 1 947.2 754.73455V858.5309a104.96 104.96 0 0 1-104.72727 104.72727M643.95636 719.82546a34.9091 34.9091 0 0 0-34.90909 34.90909V858.5309a34.9091 34.9091 0 0 0 34.9091 34.90909h198.51636a34.9091 34.9091 0 0 0 34.90909-34.9091V754.73456a34.9091 34.9091 0 0 0-34.9091-34.9091zm201.3091-133.12H646.74908a104.96 104.96 0 0 1-104.72727-104.72728V165.4691A104.96 104.96 0 0 1 646.74909 60.74182h198.51636a104.96 104.96 0 0 1 104.72728 104.72727v316.5091a104.96 104.96 0 0 1-104.72728 104.72727M646.74908 130.56A34.9091 34.9091 0 0 0 611.84 165.4691v316.50908a34.9091 34.9091 0 0 0 34.9091 34.9091h198.51635a34.9091 34.9091 0 0 0 34.9091-34.9091V165.4691a34.9091 34.9091 0 0 0-34.9091-34.90909z"/>
</svg>
